optimized/24/outline/association-form.svg

<svg viewBox="0 0 24 24" xmlns="http://www.w3.org/2000/svg" fill="currentColor" data-slot="icon">
  <g clip-path="url(#clip0_2208_12306)">
    <path d="M18 9H20C21.1046 9 22 9.89543 22 11V19C22 20.1046 21.1046 21 20 21H8C6.89543 21 6 20.1046 6 19V15H4C2.89543 15 2 14.1046 2 13V5C2 3.89543 2.89543 3 4 3H16C17.1046 3 18 3.89543 18 5V9ZM16 4.5H4C3.72386 4.5 3.5 4.72386 3.5 5V13C3.5 13.2761 3.72386 13.5 4 13.5H6V11C6 9.89543 6.89543 9 8 9H16.5V5C16.5 4.72386 16.2761 4.5 16 4.5ZM8 10.5C7.72386 10.5 7.5 10.7239 7.5 11V19C7.5 19.2761 7.72386 19.5 8 19.5H20C20.2761 19.5 20.5 19.2761 20.5 19V11C20.5 10.7239 20.2761 10.5 20 10.5H8Z"/>
  </g>
  <defs>
    <clipPath id="clip0_2208_12306">
      <rect width="24" height="24"/>
    </clipPath>
  </defs>
</svg>

<svg xmlns="http://www.w3.org/2000/svg" viewBox="0 0 24 24" fill="currentColor" data-slot="icon">
  <g clip-path="url(#a)">
    <path d="M18 9h2a2 2 0 0 1 2 2v8a2 2 0 0 1-2 2H8a2 2 0 0 1-2-2v-4H4a2 2 0 0 1-2-2V5a2 2 0 0 1 2-2h12a2 2 0 0 1 2 2v4Zm-2-4.5H4a.5.5 0 0 0-.5.5v8a.5.5 0 0 0 .5.5h2V11a2 2 0 0 1 2-2h8.5V5a.5.5 0 0 0-.5-.5Zm-8 6a.5.5 0 0 0-.5.5v8a.5.5 0 0 0 .5.5h12a.5.5 0 0 0 .5-.5v-8a.5.5 0 0 0-.5-.5H8Z"/>
  </g>
  <defs>
    <clipPath id="a">
      <rect width="24" height="24"/>
    </clipPath>
  </defs>
</svg>
